src/main/resources/img/object/function/FunctionErr_dark.svg

<?xml version="1.0" encoding="UTF-8" standalone="no"?>
<svg
        width="16"
        height="16"
        version="1.1"
        viewBox="0 0 16 16"
        xml:space="preserve"
        id="svg28121"
        sodipodi:docname="FunctionErr_dark.svg"
        inkscape:version="1.2.2 (732a01da63, 2022-12-09)"
        xmlns:inkscape="http://www.inkscape.org/namespaces/inkscape"
        xmlns:sodipodi="http://sodipodi.sourceforge.net/DTD/sodipodi-0.dtd"
        xmlns="http://www.w3.org/2000/svg"
><defs
     id="defs28125" /><sodipodi:namedview
     id="namedview28123"
     pagecolor="#505050"
     bordercolor="#ffffff"
     borderopacity="1"
     inkscape:showpageshadow="0"
     inkscape:pageopacity="0"
     inkscape:pagecheckerboard="1"
     inkscape:deskcolor="#505050"
     showgrid="true"
     inkscape:zoom="32"
     inkscape:cx="-12.921875"
     inkscape:cy="7.375"
     inkscape:window-width="2560"
     inkscape:window-height="1377"
     inkscape:window-x="-8"
     inkscape:window-y="-8"
     inkscape:window-maximized="1"
     inkscape:current-layer="svg28121"><inkscape:grid
       type="xygrid"
       id="grid29394" /></sodipodi:namedview><g
     stroke-miterlimit="0"
     stroke-width="0"
     id="g28119"
     style="fill:#e5e5e5;fill-opacity:1"><path
       d="m7 2c-1.6 0-3.0616 1.3384-3 3v2.5996h-1.4004v1.4004h1.4004v4.5996h-1.4004v1.4004h4.8008v-1.4004h-1.4004v-4.5996h1.4004v-1.4004h-1.4004v-3.1992c0-0.40039 0.4-0.99961 1.1992-1 0.80078-3.906e-4 1.2012 0.6 1.2012 1h1.5488c-0.27218-1.5116-1.3492-2.4004-2.9492-2.4004z"
       id="path28115"
       style="fill:#e5e5e5;fill-opacity:1" /></g><path
     d="M 16,12.5 C 16,14.433 14.433,16 12.5,16 10.567,16 9.0000005,14.433 9.0000005,12.5 9.0000005,10.567 10.567,8.9999999 12.5,8.9999999 14.433,8.9999999 16,10.567 16,12.5"
     fill="#e05555"
     id="path27371" /><path
     d="m 13,14 v 1 H 12 V 14 Z M 13,9.9999999 V 13 H 12 V 9.9999999 Z"
     fill="#ffffff"
     id="path27373" /></svg>

<?xml version="1.0" encoding="UTF-8"?>
<svg width="16" height="16" version="1.1" viewBox="0 0 16 16" xml:space="preserve" xmlns="http://www.w3.org/2000/svg"><g stroke-miterlimit="0" stroke-width="0"><path d="m7 2c-1.6 0-3.0616 1.3384-3 3v2.5996h-1.4004v1.4004h1.4004v4.5996h-1.4004v1.4004h4.8008v-1.4004h-1.4004v-4.5996h1.4004v-1.4004h-1.4004v-3.1992c0-0.40039 0.4-0.99961 1.1992-1 0.80078-3.906e-4 1.2012 0.6 1.2012 1h1.5488c-0.27218-1.5116-1.3492-2.4004-2.9492-2.4004z"/></g><path d="m16 12.5c0 1.933-1.567 3.5-3.5 3.5s-3.5-1.567-3.5-3.5 1.567-3.5 3.5-3.5 3.5 1.567 3.5 3.5" fill="#e05555"/><path d="m13 14v1h-1v-1zm0-4v3h-1v-3z" fill="#fff"/></svg>
